packages/ui-icons/src/Service-logos/24/Mail-cloud.svg

<?xml version="1.0" encoding="UTF-8"?>
<svg viewBox="0 0 32 32" version="1.1" xmlns="http://www.w3.org/2000/svg" xmlns:xlink="http://www.w3.org/1999/xlink">
    <!-- Generator: Sketch 50 (54983) - http://www.bohemiancoding.com/sketch -->
    <title>logo/24/mail-cloud</title>
    <desc>Created with Sketch.</desc>
    <defs></defs>
    <g id="logo/24/mail-cloud" stroke="none" stroke-width="1" fill="none" fill-rule="evenodd">
        <circle id="Oval-4" fill="#168DE2" cx="16" cy="16" r="12"></circle>
        <g id="Group-4" transform="translate(8.000000, 9.000000)">
            <ellipse id="Oval-8" fill="#FF7000" cx="11.8305085" cy="7.85393258" rx="4.16949153" ry="4.14606742"></ellipse>
            <ellipse id="Oval-8" fill="#FFAC02" cx="7.59322034" cy="7.61797753" rx="4.40677966" ry="4.38202247"></ellipse>
            <path d="M9.74332214,11.443925 C8.49840429,10.7267057 7.66101695,9.38756089 7.66101695,7.85393258 C7.66101695,6.15535055 8.68822689,4.6953384 10.158633,4.0546289 C11.2736078,4.84976582 12,6.14951925 12,7.61797753 C12,9.26172195 11.0898426,10.694082 9.74332214,11.443925 Z" id="Combined-Shape" fill="#FF9F00"></path>
            <ellipse id="Oval-8" fill="#FECD00" cx="3.3559322" cy="8.66292135" rx="3.3559322" ry="3.33707865"></ellipse>
            <path d="M5.31723869,11.3710795 C4.04018471,10.6036718 3.18644068,9.20996586 3.18644068,7.61797753 C3.18644068,6.79082844 3.41691127,6.01720622 3.81748006,5.35714411 C5.45251347,5.58078245 6.71186441,6.97560954 6.71186441,8.66292135 C6.71186441,9.77784858 6.16200821,10.7650715 5.31723869,11.3710795 Z" id="Combined-Shape" fill="#FFD302"></path>
            <ellipse id="Oval-8" fill="#FFB503" cx="4.6440678" cy="4.61797753" rx="2.81355932" ry="2.79775281"></ellipse>
            <path d="M3.22517368,7.03443222 C3.49096697,5.04820931 5.09473161,3.48243961 7.10592037,3.26244257 C7.33001467,3.66401239 7.45762712,4.12617594 7.45762712,4.61797753 C7.45762712,6.16313374 6.1979537,7.41573034 4.6440678,7.41573034 C4.12658755,7.41573034 3.64173679,7.27681169 3.22517368,7.03443222 Z" id="Combined-Shape" fill="#FFC403"></path>
            <path d="M2.01053656,5.60483185 C2.42240966,5.4254053 2.8774782,5.3258427 3.3559322,5.3258427 C4.57207233,5.3258427 5.6371234,5.9690976 6.22576303,6.93211266 C5.77503365,7.23732281 5.23050309,7.41573034 4.6440678,7.41573034 C3.43951851,7.41573034 2.41176504,6.66302998 2.01053656,5.60483185 Z" id="Combined-Shape" fill="#FFD803"></path>
            <ellipse id="Oval-8" fill="#FF9606" cx="8.44067797" cy="3.74157303" rx="3.76271186" ry="3.74157303"></ellipse>
            <path d="M5.18114474,1.87113932 C6.47813873,2.120423 7.45762712,3.255457 7.45762712,4.61797753 C7.45762712,5.52845414 7.02025533,6.33735098 6.34303759,6.84825194 C5.33870884,6.1764 4.6779661,5.03571539 4.6779661,3.74157303 C4.6779661,3.06021518 4.86112112,2.42139515 5.18114474,1.87113932 Z" id="Combined-Shape" fill="#FFC003"></path>
            <path d="M4.71901865,4.29618509 C5.49064024,3.63541476 6.49501733,3.23595506 7.59322034,3.23595506 C9.36753526,3.23595506 10.8969332,4.27867847 11.5954932,5.78149618 C10.9242168,6.80592068 9.76198143,7.48314607 8.44067797,7.48314607 C6.55210352,7.48314607 4.98850126,6.09959147 4.71901865,4.29618509 Z" id="Combined-Shape" fill="#FFBE02"></path>
            <path d="M7.68489037,7.40764452 C7.90874782,5.32771198 9.67939166,3.70786517 11.8305085,3.70786517 C11.9561648,3.70786517 12.0805229,3.71339249 12.2033502,3.72421596 C12.2033766,3.72999857 12.2033898,3.73578426 12.2033898,3.74157303 C12.2033898,5.80798676 10.5187663,7.48314607 8.44067797,7.48314607 C8.18181119,7.48314607 7.92905005,7.45715161 7.68489037,7.40764452 Z" id="Combined-Shape" fill="#FF8B00"></path>
            <path d="M7.68489037,7.40764452 C7.84687369,5.90260471 8.81875033,4.63846459 10.158633,4.0546289 C10.7756875,4.49467724 11.2737274,5.08927893 11.5954932,5.78149618 C10.9242168,6.80592068 9.76198143,7.48314607 8.44067797,7.48314607 C8.18181119,7.48314607 7.92905005,7.45715161 7.68489037,7.40764452 Z" id="Combined-Shape" fill="#FFB200"></path>
            <path d="M3.22517368,7.03443222 C3.30642859,6.42722969 3.51272609,5.8593214 3.81748006,5.35714411 C4.83843808,5.49678979 5.71291438,6.09309172 6.22576303,6.93211266 C5.77503365,7.23732281 5.23050309,7.41573034 4.6440678,7.41573034 C4.12658755,7.41573034 3.64173679,7.27681169 3.22517368,7.03443222 Z" id="Combined-Shape" fill="#FFDE03"></path>
            <path d="M4.71901865,4.29618509 C5.37491852,3.73451188 6.19899526,3.36164799 7.10592037,3.26244257 C7.33001467,3.66401239 7.45762712,4.12617594 7.45762712,4.61797753 C7.45762712,5.52845414 7.02025533,6.33735098 6.34303759,6.84825194 C5.48495627,6.27423313 4.87768249,5.35798046 4.71901865,4.29618509 Z" id="Combined-Shape" fill="#FFCD03"></path>
        </g>
    </g>
</svg>

<svg viewBox="0 0 32 32" xmlns="http://www.w3.org/2000/svg"><g fill="none" fill-rule="evenodd"><circle fill="#168DE2" cx="16" cy="16" r="12"/><g transform="translate(8 9)"><ellipse fill="#FF7000" cx="11.831" cy="7.854" rx="4.169" ry="4.146"/><ellipse fill="#FFAC02" cx="7.593" cy="7.618" rx="4.407" ry="4.382"/><path d="M9.743 11.444a4.14 4.14 0 0 1-2.082-3.59 4.146 4.146 0 0 1 2.498-3.8 4.369 4.369 0 0 1-.416 7.39Z" fill="#FF9F00"/><ellipse fill="#FECD00" cx="3.356" cy="8.663" rx="3.356" ry="3.337"/><path d="M5.317 11.371a4.375 4.375 0 0 1-2.13-3.753c0-.827.23-1.6.63-2.26a3.344 3.344 0 0 1 2.895 3.305c0 1.115-.55 2.102-1.395 2.708Z" fill="#FFD302"/><ellipse fill="#FFB503" cx="4.644" cy="4.618" rx="2.814" ry="2.798"/><path d="M3.225 7.034a4.397 4.397 0 0 1 3.88-3.772c.225.402.353.864.353 1.356a2.806 2.806 0 0 1-2.814 2.798 2.813 2.813 0 0 1-1.419-.382Z" fill="#FFC403"/><path d="M2.01 5.605a3.36 3.36 0 0 1 1.346-.28c1.216 0 2.281.644 2.87 1.607-.451.305-.995.484-1.582.484a2.814 2.814 0 0 1-2.633-1.811Z" fill="#FFD803"/><ellipse fill="#FF9606" cx="8.441" cy="3.742" rx="3.763" ry="3.742"/><path d="M5.181 1.871a2.803 2.803 0 0 1 2.277 2.747c0 .91-.438 1.72-1.115 2.23a3.732 3.732 0 0 1-1.162-4.977Z" fill="#FFC003"/><path d="M4.719 4.296a4.404 4.404 0 0 1 2.874-1.06 4.409 4.409 0 0 1 4.002 2.545 3.765 3.765 0 0 1-3.154 1.702 3.757 3.757 0 0 1-3.722-3.187Z" fill="#FFBE02"/><path d="M7.685 7.408a4.162 4.162 0 0 1 4.518-3.684v.018c0 2.066-1.684 3.741-3.762 3.741a3.8 3.8 0 0 1-.756-.075Z" fill="#FF8B00"/><path d="M7.685 7.408a4.152 4.152 0 0 1 2.474-3.353 4.405 4.405 0 0 1 1.436 1.726 3.765 3.765 0 0 1-3.91 1.627Z" fill="#FFB200"/><path d="M3.225 7.034a4.338 4.338 0 0 1 .592-1.677 3.358 3.358 0 0 1 2.409 1.575c-.451.305-.995.484-1.582.484a2.813 2.813 0 0 1-1.419-.382Z" fill="#FFDE03"/><path d="M4.719 4.296a4.4 4.4 0 0 1 2.387-1.034 2.788 2.788 0 0 1-.763 3.586 3.74 3.74 0 0 1-1.624-2.552Z" fill="#FFCD03"/></g></g></svg>
